packages/foundations/assets/icons/functional/images/technology/light_bulb_20.svg

<svg width="20" height="20" viewBox="0 0 20 20" fill="none" xmlns="http://www.w3.org/2000/svg">
<g clip-path="url(#clip0_187_595)">
<path fill-rule="evenodd" clip-rule="evenodd" d="M11.9995 14.999H7.99951C7.44751 14.999 6.99951 15.446 6.99951 15.999C6.99951 16.552 7.44751 16.999 7.99951 16.999H8.50351V17.001C8.50351 17.554 8.95151 18.001 9.50351 18.001H10.4955C11.0475 18.001 11.4955 17.554 11.4955 17.001V16.999H11.9995C12.5515 16.999 12.9995 16.552 12.9995 15.999C12.9995 15.446 12.5515 14.999 11.9995 14.999ZM10.0005 1.99899C13.0335 1.99899 15.5005 4.46699 15.5005 7.49899C15.5005 9.48099 14.5995 10.763 13.9415 11.699C13.5735 12.223 13.2555 12.675 13.2425 13.035C13.2225 13.573 12.7805 13.999 12.2425 13.999H7.75751C7.21851 13.999 6.77751 13.573 6.75751 13.035C6.74451 12.675 6.42651 12.222 6.05851 11.699C5.40051 10.764 4.49951 9.48099 4.49951 7.49899C4.49951 4.46699 6.96651 1.99899 10.0005 1.99899ZM10.0005 3.99899C8.07051 3.99899 6.50051 5.56899 6.50051 7.49899C6.50051 8.84899 7.10851 9.71299 7.69551 10.549C8.01651 11.007 8.34551 11.474 8.55051 11.999H11.4495C11.6545 11.474 11.9835 11.007 12.3055 10.549C12.8925 9.71299 13.5005 8.84899 13.5005 7.49899C13.5005 5.56899 11.9305 3.99899 10.0005 3.99899ZM9.02551 5.19599C9.53551 4.98199 10.1215 5.21799 10.3365 5.72599C10.5515 6.23499 10.3145 6.82199 9.80551 7.03799C9.66551 7.09699 9.55751 7.21899 9.51651 7.36499C9.39351 7.80599 8.99251 8.09499 8.55451 8.09499C8.46551 8.09499 8.37451 8.08299 8.28451 8.05799C7.75351 7.90999 7.44251 7.35799 7.59151 6.82599C7.79551 6.09999 8.33151 5.49099 9.02651 5.19599H9.02551Z" fill="#1A1C1F"/>
</g>
<defs>
<clipPath id="clip0_187_595">
<rect width="20" height="20" fill="white"/>
</clipPath>
</defs>
</svg>

<svg xmlns="http://www.w3.org/2000/svg" width="20" height="20" fill="none"><g clip-path="url(#a)"><path fill="#1A1C1F" fill-rule="evenodd" d="M12 14.999H8a1 1 0 1 0 0 2h.504v.002a1 1 0 0 0 1 1h.992a1 1 0 0 0 1-1v-.002h.503a1 1 0 1 0 0-2m-2-13c3.034 0 5.5 2.468 5.5 5.5 0 1.982-.9 3.264-1.559 4.2-.368.524-.686.976-.699 1.336-.02.538-.462.964-1 .964H7.759a1 1 0 0 1-1-.964c-.013-.36-.331-.813-.7-1.336-.657-.935-1.558-2.218-1.558-4.2 0-3.032 2.467-5.5 5.5-5.5m0 2c-1.93 0-3.5 1.57-3.5 3.5 0 1.35.609 2.214 1.196 3.05.32.458.65.925.855 1.45h2.899c.205-.525.534-.992.856-1.45.587-.836 1.195-1.7 1.195-3.05 0-1.93-1.57-3.5-3.5-3.5m-.974 1.197a1 1 0 0 1 .78 1.842.5.5 0 0 0-.29.327.999.999 0 1 1-1.924-.539 2.53 2.53 0 0 1 1.435-1.63z" clip-rule="evenodd"/></g><defs><clipPath id="a"><path fill="#fff" d="M0 0h20v20H0z"/></clipPath></defs></svg>
